svg/u1f328.svg

<svg viewBox="0 0 128 128" xmlns="http://www.w3.org/2000/svg">
  <path d="M108.55,45.69c0,0,1.97-34.42-27.94-38.86C53.72,2.85,48.44,28.38,48.44,28.38s-9.52-2.44-16.82,4.08 C24.36,38.93,25,46.11,25,46.11S6.84,44.28,5.01,59.63C3.3,73.97,24.01,69.98,24.01,69.98l100.38-7.39c0,0,2.38-7.54-5.21-13.23 C114.67,45.97,108.55,45.69,108.55,45.69z" fill="#E4EAEE"/>
  <path d="M56.95,55.83c0.84-0.28,3.37,2.96,17.18,2.96c14.36,0,32.1-12.11,32.1-12.11s-0.07,4.74-1.55,7.18 c-1.97,3.24-6.48,5.07-6.48,5.07s6.48,2.67,15.06,1.97c6.51-0.53,11.17-3.99,11.17-3.99s0.63,3.21,0.28,6.34 c-0.7,6.24-4.32,8.02-8.35,8.49c-2.97,0.34-28.39,1.21-38.81,1.31c-9.39,0.09-56.96,0.21-61.85-0.33c-5.07-0.56-8.87-3.24-10.28-7.6 c-1.07-3.31-0.42-6.48-0.42-6.48s5.77,2.25,12.67,2.25c6.61,0,11.54-3.1,11.54-3.1s5.21,3.57,13.94,2.82 C50.69,59.97,56.95,55.83,56.95,55.83z" fill="#B9CED2"/>
  <path d="M104.07,81.59c0,0,2.25-3.66,2.85-4.4c0.6-0.74,1.62-1.55,2.89-0.84c1.27,0.7,0.84,2.15,0.49,2.78 c-0.35,0.63-2.46,4.72-2.46,4.72s3.98,0.04,4.86,0.04s2.46,0.7,2.46,2.25c0,1.34-0.63,2.18-2.15,2.25s-5.31,0.07-5.31,0.07 s2.04,3.34,2.64,4.36c0.6,1.02,0.67,2.25-0.21,2.99c-1.13,0.95-2.6,0.42-3.48-0.95c-0.66-1.04-2.71-4.01-2.71-4.01 s-2.43,3.52-3.06,4.29c-0.63,0.77-1.79,1.69-2.96,0.81c-1.44-1.09-0.61-2.32,0-3.27c0.74-1.16,2.6-4.08,2.6-4.08 s-4.43-0.11-5.7-0.11c-1.27,0-2.36-0.7-2.29-2.15c0.07-1.48,0.99-2.08,2.5-2.11c1.51-0.04,5.53-0.04,5.53-0.04s-2.46-3.52-3.1-4.54 c-0.63-1.02-0.7-2.32,0.28-3.06c0.99-0.74,2.15-0.32,2.89,0.63S104.07,81.59,104.07,81.59z" fill="#92C9F4"/>
  <path d="M65.21,85.22c0,0,2.25-3.66,2.85-4.4c0.6-0.74,1.62-1.55,2.89-0.84c1.27,0.7,0.84,2.15,0.49,2.78 c-0.35,0.63-2.46,4.72-2.46,4.72s3.98,0.04,4.86,0.04s2.46,0.7,2.46,2.25c0,1.34-0.63,2.18-2.15,2.25 c-1.51,0.07-5.31,0.07-5.31,0.07s2.04,3.34,2.64,4.36s0.67,2.25-0.21,2.99c-1.13,0.95-2.6,0.42-3.48-0.95 c-0.66-1.04-2.71-4.01-2.71-4.01s-2.43,3.52-3.06,4.29c-0.63,0.77-1.79,1.69-2.96,0.81c-1.44-1.09-0.61-2.32,0-3.27 c0.74-1.16,2.6-4.08,2.6-4.08s-4.43-0.11-5.7-0.11c-1.27,0-2.36-0.7-2.29-2.15c0.07-1.48,0.99-2.08,2.5-2.11 c1.51-0.04,5.53-0.04,5.53-0.04s-2.46-3.52-3.1-4.54c-0.63-1.02-0.7-2.32,0.28-3.06c0.99-0.74,2.15-0.32,2.89,0.63 S65.21,85.22,65.21,85.22z" fill="#92C9F4"/>
  <path d="M44.19,105.43c0,0,2.25-3.66,2.85-4.4c0.6-0.74,1.62-1.55,2.89-0.84c1.27,0.7,0.84,2.15,0.49,2.78 c-0.35,0.63-2.46,4.72-2.46,4.72s3.98,0.04,4.86,0.04s2.46,0.7,2.46,2.25c0,1.34-0.63,2.18-2.15,2.25 c-1.51,0.07-5.31,0.07-5.31,0.07s2.04,3.34,2.64,4.36c0.6,1.02,0.67,2.25-0.21,2.99c-1.13,0.95-2.6,0.42-3.48-0.95 c-0.66-1.04-2.71-4.01-2.71-4.01s-2.43,3.52-3.06,4.29c-0.63,0.77-1.79,1.69-2.96,0.81c-1.44-1.09-0.61-2.32,0-3.27 c0.74-1.16,2.6-4.08,2.6-4.08s-4.43-0.11-5.7-0.11s-2.36-0.7-2.29-2.15c0.07-1.48,0.99-2.08,2.5-2.11c1.51-0.04,5.53-0.04,5.53-0.04 s-2.46-3.52-3.1-4.54c-0.63-1.02-0.7-2.32,0.28-3.06c0.99-0.74,2.15-0.32,2.89,0.63S44.19,105.43,44.19,105.43z" fill="#92C9F4"/>
  <path d="M26.9,82.16c0,0,2.31-3.63,2.92-4.36s1.65-1.52,2.9-0.8c1.26,0.72,0.81,2.16,0.45,2.79 s-2.54,4.68-2.54,4.68s3.98,0.1,4.86,0.11c0.88,0.01,2.45,0.74,2.43,2.29c-0.02,1.34-0.67,2.17-2.18,2.22 c-1.51,0.05-5.31-0.01-5.31-0.01s1.99,3.37,2.57,4.4s0.64,2.26-0.26,2.99c-1.14,0.93-2.61,0.38-3.47-1 c-0.65-1.05-2.65-4.05-2.65-4.05s-2.48,3.48-3.13,4.25c-0.65,0.76-1.81,1.67-2.97,0.76c-1.43-1.11-0.57-2.33,0.05-3.27 c0.76-1.15,2.67-4.04,2.67-4.04s-4.43-0.17-5.7-0.19c-1.27-0.02-2.35-0.74-2.25-2.18c0.09-1.48,1.02-2.06,2.53-2.07 s5.53,0.05,5.53,0.05s-2.41-3.56-3.03-4.59c-0.62-1.03-0.67-2.33,0.33-3.06c1-0.72,2.15-0.28,2.88,0.68 C24.24,78.7,26.9,82.16,26.9,82.16z" fill="#92C9F4"/>
  <path d="M87.08,105.15c0,0,2.25-3.66,2.85-4.4c0.6-0.74,1.62-1.55,2.89-0.84c1.27,0.7,0.84,2.15,0.49,2.78 c-0.35,0.63-2.46,4.72-2.46,4.72s3.98,0.04,4.86,0.04s2.46,0.7,2.46,2.25c0,1.34-0.63,2.18-2.15,2.25s-5.31,0.07-5.31,0.07 s2.04,3.34,2.64,4.36c0.6,1.02,0.67,2.25-0.21,2.99c-1.13,0.95-2.6,0.42-3.48-0.95c-0.66-1.04-2.71-4.01-2.71-4.01 s-2.43,3.52-3.06,4.29c-0.63,0.77-1.79,1.69-2.96,0.81c-1.44-1.09-0.61-2.32,0-3.27c0.74-1.16,2.6-4.08,2.6-4.08 s-4.43-0.11-5.7-0.11c-1.27,0-2.36-0.7-2.29-2.15c0.07-1.48,0.99-2.08,2.5-2.11s5.53-0.04,5.53-0.04s-2.46-3.52-3.1-4.54 c-0.63-1.02-0.7-2.32,0.28-3.06c0.99-0.74,2.15-0.32,2.89,0.63S87.08,105.15,87.08,105.15z" fill="#92C9F4"/>
</svg>

<svg viewBox="0 0 128 128" xmlns="http://www.w3.org/2000/svg">
  <defs/>
  <path d="M108.55,45.69 C108.55,45.69 110.52,11.27 80.61,6.83 C53.72,2.85 48.44,28.38 48.44,28.38 C48.44,28.38 38.92,25.94 31.62,32.46 C24.36,38.93 25,46.11 25,46.11 C25,46.11 6.84,44.28 5.01,59.63 C3.3,73.97 24.01,69.98 24.01,69.98 L124.39,62.59 C124.39,62.59 126.77,55.05 119.18,49.36 C114.67,45.97 108.55,45.69 108.55,45.69 Z" fill="#E4EAEE"/>
  <path d="M56.95,55.83 C57.79,55.55 60.32,58.79 74.13,58.79 C88.49,58.79 106.23,46.68 106.23,46.68 C106.23,46.68 106.16,51.42 104.68,53.86 C102.71,57.1 98.2,58.93 98.2,58.93 C98.2,58.93 104.68,61.6 113.26,60.9 C119.77,60.37 124.43,56.91 124.43,56.91 C124.43,56.91 125.06,60.12 124.71,63.25 C124.01,69.49 120.39,71.27 116.36,71.74 C113.39,72.08 87.97,72.95 77.55,73.05 C68.16,73.14 20.59,73.26 15.7,72.72 C10.63,72.16 6.83,69.48 5.42,65.12 C4.35,61.81 5,58.64 5,58.64 C5,58.64 10.77,60.89 17.67,60.89 C24.28,60.89 29.21,57.79 29.21,57.79 C29.21,57.79 34.42,61.36 43.15,60.61 C50.69,59.97 56.95,55.83 56.95,55.83 Z" fill="#B9CED2"/>
  <path d="M104.07,81.59 C104.07,81.59 106.32,77.93 106.92,77.19 C107.52,76.45 108.54,75.64 109.81,76.35 C111.08,77.05 110.65,78.5 110.3,79.13 C109.95,79.76 107.84,83.85 107.84,83.85 C107.84,83.85 111.82,83.89 112.7,83.89 C113.58,83.89 115.16,84.59 115.16,86.14 C115.16,87.48 114.53,88.32 113.01,88.39 C111.49,88.46 107.7,88.46 107.7,88.46 C107.7,88.46 109.74,91.8 110.34,92.82 C110.94,93.84 111.01,95.07 110.13,95.81 C109,96.76 107.53,96.23 106.65,94.86 C105.99,93.82 103.94,90.85 103.94,90.85 C103.94,90.85 101.51,94.37 100.88,95.14 C100.25,95.91 99.09,96.83 97.92,95.95 C96.48,94.86 97.31,93.63 97.92,92.68 C98.66,91.52 100.52,88.6 100.52,88.6 C100.52,88.6 96.09,88.49 94.82,88.49 C93.55,88.49 92.46,87.79 92.53,86.34 C92.6,84.86 93.52,84.26 95.03,84.23 C96.54,84.19 100.56,84.19 100.56,84.19 C100.56,84.19 98.1,80.67 97.46,79.65 C96.83,78.63 96.76,77.33 97.74,76.59 C98.73,75.85 99.89,76.27 100.63,77.22 C101.37,78.17 104.07,81.59 104.07,81.59 Z" fill="#92C9F4"/>
  <path d="M65.21,85.22 C65.21,85.22 67.46,81.56 68.06,80.82 C68.66,80.08 69.68,79.27 70.95,79.98 C72.22,80.68 71.79,82.13 71.44,82.76 C71.09,83.39 68.98,87.48 68.98,87.48 C68.98,87.48 72.96,87.52 73.84,87.52 C74.72,87.52 76.3,88.22 76.3,89.77 C76.3,91.11 75.67,91.95 74.15,92.02 C72.64,92.09 68.84,92.09 68.84,92.09 C68.84,92.09 70.88,95.43 71.48,96.45 C72.08,97.47 72.15,98.7 71.27,99.44 C70.14,100.39 68.67,99.86 67.79,98.49 C67.13,97.45 65.08,94.48 65.08,94.48 C65.08,94.48 62.65,98 62.02,98.77 C61.39,99.54 60.23,100.46 59.06,99.58 C57.62,98.49 58.45,97.26 59.06,96.31 C59.8,95.15 61.66,92.23 61.66,92.23 C61.66,92.23 57.23,92.12 55.96,92.12 C54.69,92.12 53.6,91.42 53.67,89.97 C53.74,88.49 54.66,87.89 56.17,87.86 C57.68,87.82 61.7,87.82 61.7,87.82 C61.7,87.82 59.24,84.3 58.6,83.28 C57.97,82.26 57.9,80.96 58.88,80.22 C59.87,79.48 61.03,79.9 61.77,80.85 C62.51,81.8 65.21,85.22 65.21,85.22 Z" fill="#92C9F4"/>
  <path d="M44.19,105.43 C44.19,105.43 46.44,101.77 47.04,101.03 C47.64,100.29 48.66,99.48 49.93,100.19 C51.2,100.89 50.77,102.34 50.42,102.97 C50.07,103.6 47.96,107.69 47.96,107.69 C47.96,107.69 51.94,107.73 52.82,107.73 C53.7,107.73 55.28,108.43 55.28,109.98 C55.28,111.32 54.65,112.16 53.13,112.23 C51.62,112.3 47.82,112.3 47.82,112.3 C47.82,112.3 49.86,115.64 50.46,116.66 C51.06,117.68 51.13,118.91 50.25,119.65 C49.12,120.6 47.65,120.07 46.77,118.7 C46.11,117.66 44.06,114.69 44.06,114.69 C44.06,114.69 41.63,118.21 41,118.98 C40.37,119.75 39.21,120.67 38.04,119.79 C36.6,118.7 37.43,117.47 38.04,116.52 C38.78,115.36 40.64,112.44 40.64,112.44 C40.64,112.44 36.21,112.33 34.94,112.33 C33.67,112.33 32.58,111.63 32.65,110.18 C32.72,108.7 33.64,108.1 35.15,108.07 C36.66,108.03 40.68,108.03 40.68,108.03 C40.68,108.03 38.22,104.51 37.58,103.49 C36.95,102.47 36.88,101.17 37.86,100.43 C38.85,99.69 40.01,100.11 40.75,101.06 C41.49,102.01 44.19,105.43 44.19,105.43 Z" fill="#92C9F4"/>
  <path d="M26.9,82.16 C26.9,82.16 29.21,78.53 29.82,77.8 C30.43,77.07 31.47,76.28 32.72,77 C33.98,77.72 33.53,79.16 33.17,79.79 C32.81,80.42 30.63,84.47 30.63,84.47 C30.63,84.47 34.61,84.57 35.49,84.58 C36.37,84.59 37.94,85.32 37.92,86.87 C37.9,88.21 37.25,89.04 35.74,89.09 C34.23,89.14 30.43,89.08 30.43,89.08 C30.43,89.08 32.42,92.45 33,93.48 C33.58,94.51 33.64,95.74 32.74,96.47 C31.6,97.4 30.13,96.85 29.27,95.47 C28.62,94.42 26.62,91.42 26.62,91.42 C26.62,91.42 24.14,94.9 23.49,95.67 C22.84,96.43 21.68,97.34 20.52,96.43 C19.09,95.32 19.95,94.1 20.57,93.16 C21.33,92.01 23.24,89.12 23.24,89.12 C23.24,89.12 18.81,88.95 17.54,88.93 C16.27,88.91 15.19,88.19 15.29,86.75 C15.38,85.27 16.31,84.69 17.82,84.68 C19.33,84.67 23.35,84.73 23.35,84.73 C23.35,84.73 20.94,81.17 20.32,80.14 C19.7,79.11 19.65,77.81 20.65,77.08 C21.65,76.36 22.8,76.8 23.53,77.76 C24.24,78.7 26.9,82.16 26.9,82.16 Z" fill="#92C9F4"/>
  <path d="M87.08,105.15 C87.08,105.15 89.33,101.49 89.93,100.75 C90.53,100.01 91.55,99.2 92.82,99.91 C94.09,100.61 93.66,102.06 93.31,102.69 C92.96,103.32 90.85,107.41 90.85,107.41 C90.85,107.41 94.83,107.45 95.71,107.45 C96.59,107.45 98.17,108.15 98.17,109.7 C98.17,111.04 97.54,111.88 96.02,111.95 C94.5,112.02 90.71,112.02 90.71,112.02 C90.71,112.02 92.75,115.36 93.35,116.38 C93.95,117.4 94.02,118.63 93.14,119.37 C92.01,120.32 90.54,119.79 89.66,118.42 C89,117.38 86.95,114.41 86.95,114.41 C86.95,114.41 84.52,117.93 83.89,118.7 C83.26,119.47 82.1,120.39 80.93,119.51 C79.49,118.42 80.32,117.19 80.93,116.24 C81.67,115.08 83.53,112.16 83.53,112.16 C83.53,112.16 79.1,112.05 77.83,112.05 C76.56,112.05 75.47,111.35 75.54,109.9 C75.61,108.42 76.53,107.82 78.04,107.79 C79.55,107.76 83.57,107.75 83.57,107.75 C83.57,107.75 81.11,104.23 80.47,103.21 C79.84,102.19 79.77,100.89 80.75,100.15 C81.74,99.41 82.9,99.83 83.64,100.78 C84.38,101.73 87.08,105.15 87.08,105.15 Z" fill="#92C9F4"/>
</svg>
